Obsidian-SemiLight/actions/16s/project-development-new-template.svg

<svg viewBox="0 0 16 16" xmlns="http://www.w3.org/2000/svg"><path d="m2 2v12h6v-1h-5v-8h10v3h1v-6h-11zm9.001953 6.0019531-.574219 1.6132813-1.5468746-.7363282.734375 1.5468748-1.6132813.574219 1.6132813.574219-.7363282 1.546875 1.5468748-.734375.574219 1.613281.574219-1.613281 1.546875.734375-.734375-1.546875 1.613281-.574219-1.613281-.572266.734375-1.5468746-1.546875.734375z" fill="#4d4d4d"/></svg>

<svg xmlns="http://www.w3.org/2000/svg" viewBox="0 0 16 16">
  <defs id="defs3051">
    <style type="text/css" id="current-color-scheme">
      .ColorScheme-Text {
        color:#4d4d4d;
      }
      </style>
  </defs>
 <path 
     style="fill:currentColor;fill-opacity:1;stroke:none" 
     d="M 2 2 L 2 14 L 8 14 L 8 13 L 3 13 L 3 5 L 13 5 L 13 8 L 14 8 L 14 2 L 3 2 L 2 2 z M 11.001953 8.0019531 L 10.427734 9.6152344 L 8.8808594 8.8789062 L 9.6152344 10.425781 L 8.0019531 11 L 9.6152344 11.574219 L 8.8789062 13.121094 L 10.425781 12.386719 L 11 14 L 11.574219 12.386719 L 13.121094 13.121094 L 12.386719 11.574219 L 14 11 L 12.386719 10.427734 L 13.121094 8.8808594 L 11.574219 9.6152344 L 11.001953 8.0019531 z "
     class="ColorScheme-Text"/>
</svg>
